dist/img/basket320.svg

<svg width="30" height="30" viewBox="0 0 30 30" fill="none" xmlns="http://www.w3.org/2000/svg">
<path d="M8.75 22.5C7.375 22.5 6.2625 23.625 6.2625 25C6.2625 26.375 7.375 27.5 8.75 27.5C10.125 27.5 11.25 26.375 11.25 25C11.25 23.625 10.125 22.5 8.75 22.5ZM1.25 2.5V5H3.75L8.25 14.4875L6.5625 17.55C6.3625 17.9 6.25 18.3125 6.25 18.75C6.25 20.125 7.375 21.25 8.75 21.25H23.75V18.75H9.275C9.1 18.75 8.9625 18.6125 8.9625 18.4375L9 18.2875L10.125 16.25H19.4375C20.375 16.25 21.2 15.7375 21.625 14.9625L26.1 6.85C26.2 6.675 26.25 6.4625 26.25 6.25C26.25 5.5625 25.6875 5 25 5H6.5125L5.3375 2.5H1.25ZM21.25 22.5C19.875 22.5 18.7625 23.625 18.7625 25C18.7625 26.375 19.875 27.5 21.25 27.5C22.625 27.5 23.75 26.375 23.75 25C23.75 23.625 22.625 22.5 21.25 22.5Z" fill="#2D2D2D"/>
</svg>

<svg width="30" height="30" fill="none" xmlns="http://www.w3.org/2000/svg"><path d="M8.75 22.5A2.497 2.497 0 0 0 6.263 25c0 1.375 1.112 2.5 2.487 2.5s2.5-1.125 2.5-2.5-1.125-2.5-2.5-2.5Zm-7.5-20V5h2.5l4.5 9.488-1.688 3.062c-.2.35-.312.762-.312 1.2 0 1.375 1.125 2.5 2.5 2.5h15v-2.5H9.275a.31.31 0 0 1-.313-.313l.038-.15 1.125-2.037h9.313c.937 0 1.762-.512 2.187-1.287L26.1 6.85A1.254 1.254 0 0 0 25 5H6.512L5.338 2.5H1.25Zm20 20a2.497 2.497 0 0 0-2.488 2.5c0 1.375 1.113 2.5 2.488 2.5s2.5-1.125 2.5-2.5-1.125-2.5-2.5-2.5Z" fill="#2D2D2D"/></svg>
